X:1
T:Same old Saturday night
T:Same old Saturday night
T:Frank Reardon
T:Sammy Cahn
C:Frank Reardon
Z:All Rights Reserved
L:1/4
M:4/4
K:C
V:1 treble nm="Electric Piano"
%%MIDI program 4
V:1
"C" C E"C7" G3/2 C/ |"F" F A"C" G2 | c A"Am" G E |"Dm" F G"G7" D2 |"C" C D"C7" E G |"F" F A c2 |1 %6
w: Went to see a|mov- ie show|found my- self an|emp- ty row|thought the show was|just al- right|
w: Then I made the|u- sual stop|cof- fee at the|cof- fee shop|friend- ly face no-|where in sight|
"^D&" d d d/^A/ B ||"G7" A4 :|2"D7" d d"G7" c/A/ B ||"C" c3 c |"C7" _B c c3/2 c/ | %11
w: same old Sat- ur- day|night|same old Sat- ur- day|night I|real- ly thought the|
w: |||||
 _B/_B/ B c3/2 A/ |"F" G G/G/"C7" G/A/F/G/ |"F" A3 A |"D7" c ^c d D/D/ | c/B/c/^c/ d D/D/ | %16
w: pa- pers I bought would|help me for- get you for a|while be-|lieve me hon- ey the|fun- nies were- nt fun- ny they|
w: |||||
"G7" A/G/A/G/ _B G | G3 z |"C" C E"C7" G3/2 C/ |"F" F A"C" G2 | c A"Am" G C |"Dm" F G"G7" D2 | %22
w: did- nt e- ven make me|smile|How i wish you'd|lift the phone|fun is fun but|not a- lone|
w: ||||||
"C" C D"C7" E G |"F" F A c2 |"D7" d d"G7" c/A/ B |"C" c3 z | z4 | z4 | z4 |] %29
w: till you let me|hold you tight|same old Sat- ur- day|night.||||
w: |||||||

